X:222
T:The Plains Of Boyle
R:hornpipe
M:4/4
L:1/8
K:Dmaj
|: FG | AFDE FEDF | (3ABA GB AFD2 | fedf edce | dBAB =cABG |
AFDE FEDF | (3ABA GB AFD2 | fedB (3ABA GE | F2D2 D2 :|
|: fg | afdf g2fe | dfed BAFG | (3ABA FA BAFA | ~A2FA BAfg |
afdf g2fe | dfed BAFG | ~A3F GBAG | F2D2 D2 :|

